X: 30845
T: Out In The Cold
R: jig
M: 6/8
K: Gdorian
ABG ABc|dBG FDC|DGG dGG|fe/f/g fcA|
B2G ABc|dge fga|gfd cAF|DGF G2A|
B2G AA/B/c|dBG FDC|DGG dGG|fe/f/g fcA|
BbB ABc|dge ~f3|gfd cAF|DGF G2A||
~B3 GBd|cAF FGA|B/c/BG ABc|dg^f g2a|
gfd dcA|fe/f/g fdc|B2G cAF|DGF G2A|
~B3 GBd|cAF FGA|B/c/BG ABc|dg^f g2a|
gfd dcA|~f3 fdc|B2G cAF|DGF G2A||
BGG dGG|Bdg dBG|AFF cFF|Acf cAF|
B2G ABc|dBG FAc|fe/f/g fcA|DGF G2A|
~B3 ~d3|Bdg dBG|AFF cFF|Acf cAF|
B2G ABc|dBG FAc|fe/f/g fcA|DGF G3||

